dist/img/icons/social/facebook.svg

<svg width="9" height="16" viewBox="0 0 9 16" fill="none" xmlns="http://www.w3.org/2000/svg">
<path d="M2.96962 15.3332V8.85386H0.865234V6.27911H2.96962V4.25044C2.96962 2.04634 4.27559 0.84668 6.18243 0.84668C7.09607 0.84668 7.88075 0.917414 8.10848 0.948538V3.25166H6.78604C5.74894 3.25166 5.54865 3.76095 5.54865 4.50508V6.27911H7.88899L7.56798 8.85386H5.54865V15.3332" fill="#161C25"/>
</svg>

<svg width="9" height="16" fill="none" xmlns="http://www.w3.org/2000/svg"><path d="M2.97 15.333v-6.48H.865V6.28H2.97V4.25C2.97 2.046 4.276.847 6.182.847c.914 0 1.699.07 1.926.102v2.303H6.786c-1.037 0-1.237.509-1.237 1.253V6.28h2.34l-.321 2.575h-2.02v6.48" fill="#161C25"/></svg>
